X: 1
T: the Rattlin' Bog
R: march
Z: 2006 John Chambers <jc:trillian.mit.edu>
M: C|
L: 1/8
K: G
d2 \
| "G"B4 B3A | "C"G2E2 E2GE | "G"D2G2 "Em"GFGA | "A7"B2A2 "D7"A2d2 \
| "G"B4 "B7"B3A | "Em"G2E2 "C"E2GE | "G"D2d2 "Em"d2B2 | "D7"A4 "G"G2 :|
|: GA \
| "G"B2G2 "D7"A2G2 | "G"B2G2 "D7"A2GA | "G"B2d2 "Em"d2B2 | "A7"B2A2 "D7"A2GA \
| "G"B2G2 "B7"A2GA | "Em"B2G2 "C"A2GE | "G"D2d2 "Em"d2B2 | "D7"A4 "G"G2 :|
